icon-themes/breeze_svg/cmd/sc_showprecedents.svg

<svg viewBox="0 0 16 16" xmlns="http://www.w3.org/2000/svg"><path d="m8 3.3164062-.6875.6835938 1.84375 1.84375-.5957031.5957031-.5605469.5605469h3v-3l-1.15625 1.15625-1.15625-1.15625zm0 5.6835938.5605469.5605469.5957031.5957031-1.84375 1.84375.6875.683594.6875-.683594 1.15625-1.15625 1.15625 1.15625v-3z" fill="#1d99f3"/><path d="m2 2v5h5v-5zm1 1h3v3h-3zm8 3v1h2v2h-2v1h2 1v-4h-1zm-9 3v5h5v-5zm1 1h3v3h-3z" fill="#4d4d4d"/></svg>

<svg viewBox="0 0 16 16" xmlns="http://www.w3.org/2000/svg">
  <path
     style="fill:#1d99f3"
     d="M 8 3.3164062 L 7.3125 4 L 9.15625 5.84375 L 8.5605469 6.4394531 L 8 7 L 11 7 L 11 4 L 9.84375 5.15625 L 8.6875 4 L 8 3.3164062 z M 8 9 L 8.5605469 9.5605469 L 9.15625 10.15625 L 7.3125 12 L 8 12.683594 L 8.6875 12 L 9.84375 10.84375 L 11 12 L 11 9 L 8 9 z "
     />
  <path
     style="fill:#4d4d4d"
     d="M 2 2 L 2 7 L 7 7 L 7 2 L 2 2 z M 3 3 L 6 3 L 6 6 L 3 6 L 3 3 z M 11 6 L 11 7 L 13 7 L 13 9 L 11 9 L 11 10 L 13 10 L 14 10 L 14 6 L 13 6 L 11 6 z M 2 9 L 2 14 L 7 14 L 7 9 L 2 9 z M 3 10 L 6 10 L 6 13 L 3 13 L 3 10 z "
     />
</svg>
